src/r/2200-23e7_math/2245_congruent.svg

<?xml version="1.0" encoding="UTF-8" standalone="no"?>
<!-- Created with Inkscape (http://www.inkscape.org/) -->

<svg
   xmlns:dc="http://purl.org/dc/elements/1.1/"
   xmlns:cc="http://creativecommons.org/ns#"
   xmlns:rdf="http://www.w3.org/1999/02/22-rdf-syntax-ns#"
   xmlns:svg="http://www.w3.org/2000/svg"
   xmlns="http://www.w3.org/2000/svg"
   version="1.1"
   width="1024"
   height="2048"
   id="svg3355">
  <defs
     id="defs3357" />
  <metadata
     id="metadata3360">
    <rdf:RDF>
      <cc:Work
         rdf:about="">
        <dc:format>image/svg+xml</dc:format>
        <dc:type
           rdf:resource="http://purl.org/dc/dcmitype/StillImage" />
        <dc:title></dc:title>
      </cc:Work>
    </rdf:RDF>
  </metadata>
  <path
     d="M 312,438 C 159.0037,438 64,574 64,574 l 64,136 c 0,0 81.0003,-115 212,-115 141.9975,0 201.9964,131 372,131 153.0001,0 248,-136 248,-136 L 896,454 c 0,0 -81.0008,115 -212,115 C 542.0028,569 481.9985,438 312,438 z m -216,379 0,158 832,0 0,-158 -832,0 z m 0,315 0,157 832,0 0,-157 -832,0 z"
     id="path7165-4-5"
     style="fill:#000000;fill-opacity:1;stroke:none;display:inline" />
</svg>

<?xml version="1.0" encoding="UTF-8" standalone="no"?>
<svg
   xmlns:dc="http://purl.org/dc/elements/1.1/"
   xmlns:cc="http://creativecommons.org/ns#"
   xmlns:rdf="http://www.w3.org/1999/02/22-rdf-syntax-ns#"
   xmlns:svg="http://www.w3.org/2000/svg"
   xmlns="http://www.w3.org/2000/svg"
   id="svg3355"
   height="2048"
   width="1024"
   version="1.1">
  <defs
     id="defs3357" />
  <metadata
     id="metadata3360">
    <rdf:RDF>
      <cc:Work
         rdf:about="">
        <dc:format>image/svg+xml</dc:format>
        <dc:type
           rdf:resource="http://purl.org/dc/dcmitype/StillImage" />
        <dc:title></dc:title>
      </cc:Work>
    </rdf:RDF>
  </metadata>
  <path
     d="M 312 422 C 158.9993 422 64 631 64 631 L 175 742 C 175 742 239.9968 582 346 582 C 452.00331 582 559.0044 742 712 742 C 864.9956 742 960 533 960 533 L 849 422 C 849 422 783.9971 583.90039 678 583.90039 C 572.0029 583.90039 465.00071 422 312 422 z M 96 817 L 96 975 L 928 975 L 928 817 L 96 817 z M 96 1132 L 96 1289 L 928 1289 L 928 1132 L 96 1132 z "
     style="display:inline;fill:#000000;fill-opacity:1;stroke:none"
     id="path7165-4-5" />
</svg>
